content/hardware/09.kits/maker/nesso-n1/image.svg

<svg width="189" height="145" viewBox="0 0 189 145" fill="none" xmlns="http://www.w3.org/2000/svg">
<path d="M141.773 4.57002C146.219 4.57002 149.824 8.17459 149.824 12.621L149.824 123.697C149.824 124.725 149.438 125.715 148.741 126.47L144.109 131.5C143.334 132.341 142.242 132.82 141.098 132.82L127.469 132.82C123.023 132.82 119.418 129.215 119.418 124.769L119.418 12.621C119.418 8.17457 123.023 4.57 127.469 4.57L141.773 4.57002Z" fill="#465156"/>
<path d="M141.833 129.507C141.833 129.723 141.658 129.897 141.443 129.897L129.748 129.897C129.533 129.897 129.359 129.723 129.359 129.507L129.359 127.558L141.833 127.558L141.833 129.507ZM141.833 125.219C142.479 125.219 143.002 125.742 143.002 126.388C143.002 127.034 142.479 127.558 141.833 127.558L129.359 127.558C128.713 127.558 128.189 127.034 128.189 126.388C128.189 125.742 128.713 125.219 129.359 125.219L141.833 125.219Z" fill="#374146"/>
<path fill-rule="evenodd" clip-rule="evenodd" d="M127.911 7.70062L141.331 7.70063C144.407 7.70063 146.923 10.217 146.923 13.2926L146.923 115.626C146.923 118.702 144.4 121.218 141.331 121.218L127.911 121.218C124.842 121.218 122.319 118.695 122.319 115.626L122.319 13.2926C122.319 10.2237 124.835 7.70062 127.911 7.70062Z" fill="white"/>
<path d="M131.56 12.5907L137.85 14.5649L137.85 16.3166L131.56 18.3201L131.56 16.6653L132.847 16.3166L132.847 14.5071L131.56 14.1878L131.56 12.5907ZM136.36 15.3779L134.057 14.8072L134.057 15.9973L136.36 15.3779Z" fill="#008184"/>
<path d="M137.85 19.3161L137.85 21.8513C137.85 23.5934 136.96 24.2513 135.75 24.2513C134.889 24.2513 134.231 23.9031 133.863 23.2158L131.56 24.4449L131.56 22.606L133.553 21.6577L133.553 20.8741L131.56 20.8741L131.56 19.3161L137.85 19.3161ZM135.74 22.5964C136.302 22.5964 136.583 22.3932 136.583 21.6674L136.583 20.8741L134.802 20.8741L134.802 21.6967C134.802 22.2386 135.044 22.5964 135.74 22.5964Z" fill="#008184"/>
<path d="M137.85 25.5093L137.85 27.5707C137.85 29.922 136.737 30.7061 134.763 30.7061C133.273 30.7061 131.56 30.2514 131.56 27.5803L131.56 25.5093L137.85 25.5093ZM136.583 27.0669L132.847 27.0669L132.847 27.6574C132.847 28.9443 133.631 29.0416 134.695 29.0416C135.924 29.0416 136.583 28.9154 136.583 27.5225L136.583 27.0669Z" fill="#008184"/>
<path d="M137.85 35.3113L137.85 36.8111L133.718 36.8111C131.86 36.8111 131.463 35.3884 131.463 34.2758C131.463 33.2018 131.821 31.8273 133.728 31.8273L137.85 31.8273L137.85 33.3858L134.018 33.3858C132.973 33.3858 132.731 33.7528 132.731 34.3433C132.731 35.0503 133.05 35.3113 134.008 35.3113L137.85 35.3113Z" fill="#008184"/>
<path d="M132.847 38.2039L132.847 39.8299L136.563 39.8299L136.563 38.2039L137.85 38.2039L137.85 43.024L136.563 43.024L136.563 41.3885L132.847 41.3885L132.847 43.024L131.56 43.024L131.56 38.2039L132.847 38.2039Z" fill="#008184"/>
<path d="M131.56 45.7809L131.56 44.31L137.85 44.31L137.85 46.0034L134.076 48.0455L137.85 48.0455L137.85 49.4971L131.56 49.4971L131.56 47.9193L135.586 45.7713L131.56 45.7809Z" fill="#008184"/>
<path d="M134.705 55.8641C132.886 55.8641 131.463 55.1966 131.463 53.1738C131.463 51.3638 132.557 50.5316 134.637 50.5316C136.534 50.5316 137.938 51.2579 137.938 53.1642C137.938 54.9548 137.105 55.8641 134.705 55.8641ZM134.705 54.2093C136.244 54.2093 136.67 54.0831 136.67 53.1642C136.67 52.3319 136.176 52.1865 134.637 52.1865C133.37 52.1865 132.731 52.2741 132.731 53.1738C132.731 54.0831 133.253 54.2093 134.705 54.2093Z" fill="#008184"/>
<path d="M137.113 56.9122C137.881 56.9122 138.502 57.5219 138.502 58.2607C138.502 59.0168 137.881 59.6266 137.113 59.6266C136.306 59.6266 135.73 59.0169 135.73 58.2607C135.73 57.5219 136.351 56.9122 137.113 56.9122ZM137.113 59.3723C137.717 59.3723 138.27 58.9215 138.27 58.2607C138.27 57.6173 137.796 57.1655 137.113 57.1655C136.396 57.1655 135.956 57.6963 135.956 58.2607C135.956 58.9215 136.407 59.3723 137.113 59.3723ZM137.96 57.5662L137.96 58.3002C137.96 58.8473 137.722 59.0457 137.39 59.0457C137.181 59.0457 137 58.9494 136.899 58.752L136.272 59.04L136.272 58.4697L136.802 58.2886L136.802 58.0854L136.272 58.0854L136.272 57.5662L137.96 57.5662ZM137.158 58.2549C137.158 58.4071 137.215 58.5034 137.39 58.5034C137.531 58.5034 137.599 58.4524 137.599 58.2491L137.599 58.0854L137.158 58.0854L137.158 58.2549Z" fill="#008184"/>
<path d="M131.56 67.8517L131.56 67.1071L137.85 67.1071L137.85 67.9683L132.808 71.0362L137.85 71.0362L137.85 71.7712L131.56 71.7712L131.56 70.9678L136.699 67.8517L131.56 67.8517Z" fill="#008184"/>
<path d="M137.85 77.9158L137.173 77.9158L137.173 74.4318L135.121 74.4318L135.121 77.5864L134.453 77.5864L134.453 74.4318L132.247 74.4318L132.247 77.9158L131.56 77.9158L131.56 73.6477L137.85 73.6477L137.85 77.9158Z" fill="#008184"/>
<path d="M136.292 80.0051C137.269 80.0051 137.938 80.9346 137.938 82.183C137.938 82.889 137.744 83.5768 137.512 83.9736L136.747 83.7309C137.057 83.3437 137.26 82.812 137.26 82.2119C137.26 81.37 136.979 80.8277 136.35 80.8277C134.879 80.8277 135.479 84.1865 133.215 84.1865C132.015 84.1865 131.463 83.1308 131.463 81.9017C131.463 81.0598 131.725 80.3345 132.005 79.8702L132.77 80.1409C132.363 80.6244 132.121 81.2534 132.121 81.9797C132.121 82.7542 132.421 83.3543 133.118 83.3543C134.87 83.3543 134.182 80.0051 136.292 80.0051Z" fill="#008184"/>
<path d="M136.292 86.2941C137.269 86.2941 137.938 87.2237 137.938 88.472C137.938 89.1781 137.744 89.8659 137.512 90.2627L136.747 90.02C137.057 89.6327 137.26 89.101 137.26 88.5009C137.26 87.659 136.979 87.1167 136.35 87.1167C134.879 87.1167 135.479 90.4756 133.215 90.4756C132.015 90.4756 131.463 89.4199 131.463 88.1917C131.463 87.3489 131.725 86.6236 132.005 86.1593L132.77 86.4299C132.363 86.9135 132.121 87.5425 132.121 88.2688C132.121 89.0432 132.421 89.6433 133.118 89.6433C134.87 89.6433 134.182 86.2941 136.292 86.2941Z" fill="#008184"/>
<path d="M134.695 97.2299C132.827 97.2299 131.463 96.3292 131.463 94.5684C131.463 92.7103 132.702 91.9647 134.686 91.9647C136.631 91.9647 137.938 92.8066 137.938 94.6069C137.938 96.4458 136.805 97.2299 134.695 97.2299ZM134.695 96.3976C136.34 96.3976 137.26 96.0008 137.26 94.6069C137.26 93.2227 136.389 92.797 134.686 92.797C133.089 92.797 132.141 93.1457 132.141 94.5684C132.141 95.9333 133.167 96.3976 134.695 96.3976Z" fill="#008184"/>
<path d="M131.56 105.589L131.56 104.844L137.85 104.844L137.85 105.705L132.808 108.773L137.85 108.773L137.85 109.508L131.56 109.508L131.56 108.705L136.699 105.589L131.56 105.589Z" fill="#008184"/>
<path d="M132.227 111.366L132.227 113.137L137.028 113.137L136.708 111.531L137.337 111.531L137.928 113.902L132.227 113.902L132.227 115.76L131.56 115.76L131.56 111.366L132.227 111.366Z" fill="#008184"/>
<path d="M96.7808 4.57001H46.0643C41.4297 4.57001 37.6726 8.32709 37.6726 12.9617V131.178C37.6726 135.813 41.4297 139.57 46.0643 139.57H96.7808C101.415 139.57 105.172 135.813 105.172 131.178V12.9617C105.172 8.32709 101.415 4.57001 96.7808 4.57001Z" fill="#778186"/>
<path d="M101.814 12.9606V131.18C101.814 133.968 99.5514 136.22 96.7733 136.22H46.0725C43.2944 136.22 41.0322 133.968 41.0322 131.18V12.9606C41.0322 11.9783 41.3199 11.0456 41.816 10.2717C42.6991 8.85289 44.2766 7.92023 46.0725 7.92023H96.7733C99.5514 7.92023 101.814 10.1725 101.814 12.9606Z" fill="black"/>
<path d="M92.6007 22.5391H50.2444V93.1609H92.6007V22.5391Z" fill="#374146"/>
<path d="M85.5199 106.804H57.3251C55.5581 106.804 54.1256 108.237 54.1256 110.004C54.1256 111.771 55.5581 113.203 57.3251 113.203H85.5199C87.287 113.203 88.7194 111.771 88.7194 110.004C88.7194 108.237 87.287 106.804 85.5199 106.804Z" fill="#DEDD00"/>
<g opacity="0.2">
<path d="M101.804 58.5019V78.7029L41.816 10.2717C42.6991 8.85286 44.2766 7.9202 46.0725 7.9202H57.4529L101.804 58.5019Z" fill="white"/>
<path d="M101.814 12.9605V21.1262L90.2349 7.9202H96.7734C99.5515 7.9202 101.814 10.1725 101.814 12.9605Z" fill="white"/>
<path d="M101.814 84.7056V94.0719L41.0323 24.7577V15.3914L101.814 84.7056Z" fill="white"/>
<path d="M41.0322 81.1536L89.322 136.22H91.5445L41.0322 78.6136V81.1536Z" fill="white"/>
<path d="M53.9605 136.22H46.0726C43.2945 136.22 41.0323 133.968 41.0323 131.18V121.476L53.9605 136.22Z" fill="white"/>
</g>
</svg>

<svg xmlns="http://www.w3.org/2000/svg" width="189" height="145" fill="none" viewBox="0 0 189 145"><path fill="#465156" d="M141.773 4.57a8.05 8.05 0 0 1 8.051 8.051v111.076a4.1 4.1 0 0 1-1.083 2.773l-4.632 5.03a4.1 4.1 0 0 1-3.011 1.32h-13.629a8.05 8.05 0 0 1-8.051-8.051V12.621a8.05 8.05 0 0 1 8.051-8.051z"/><path fill="#374146" d="M141.833 129.507a.39.39 0 0 1-.39.39h-11.695a.39.39 0 0 1-.389-.39v-1.949h12.474zm0-4.288a1.169 1.169 0 1 1 0 2.339h-12.474a1.17 1.17 0 0 1 0-2.339z"/><path fill="#fff" fill-rule="evenodd" d="M127.911 7.7h13.42c3.076 0 5.592 2.517 5.592 5.593v102.333c0 3.076-2.523 5.592-5.592 5.592h-13.42c-3.069 0-5.592-2.523-5.592-5.592V13.293c0-3.07 2.516-5.592 5.592-5.592" clip-rule="evenodd"/><path fill="#008184" d="m131.56 12.59 6.29 1.975v1.752l-6.29 2.003v-1.655l1.287-.348v-1.81l-1.287-.32zm4.8 2.788-2.303-.57v1.19zM137.85 19.316v2.535c0 1.742-.89 2.4-2.1 2.4-.861 0-1.519-.348-1.887-1.035l-2.303 1.229v-1.839l1.993-.948v-.784h-1.993v-1.558zm-2.11 3.28c.562 0 .843-.203.843-.929v-.793h-1.781v.823c0 .542.242.9.938.9M137.85 25.51v2.06c0 2.352-1.113 3.136-3.087 3.136-1.49 0-3.203-.455-3.203-3.126v-2.07zm-1.267 1.557h-3.736v.59c0 1.287.784 1.385 1.848 1.385 1.229 0 1.888-.127 1.888-1.52zM137.85 35.311v1.5h-4.132c-1.858 0-2.255-1.423-2.255-2.535 0-1.074.358-2.449 2.265-2.449h4.122v1.559h-3.832c-1.045 0-1.287.367-1.287.957 0 .707.319.968 1.277.968zM132.847 38.204v1.626h3.716v-1.626h1.287v4.82h-1.287v-1.636h-3.716v1.636h-1.287v-4.82zM131.56 45.78v-1.47h6.29v1.693l-3.774 2.042h3.774v1.452h-6.29V47.92l4.026-2.148zM134.705 55.864c-1.819 0-3.242-.667-3.242-2.69 0-1.81 1.094-2.642 3.174-2.642 1.897 0 3.301.726 3.301 2.632 0 1.79-.833 2.7-3.233 2.7m0-1.655c1.539 0 1.965-.126 1.965-1.045 0-.832-.494-.977-2.033-.977-1.267 0-1.906.087-1.906.987 0 .91.522 1.035 1.974 1.035M137.113 56.912c.768 0 1.389.61 1.389 1.349 0 .756-.621 1.366-1.389 1.366-.807 0-1.383-.61-1.383-1.366 0-.74.621-1.349 1.383-1.349m0 2.46c.604 0 1.157-.45 1.157-1.111 0-.644-.474-1.096-1.157-1.096-.717 0-1.157.531-1.157 1.096 0 .66.451 1.111 1.157 1.111m.847-1.806v.734c0 .547-.238.746-.57.746a.53.53 0 0 1-.491-.294l-.627.288v-.57l.53-.181v-.204h-.53v-.519zm-.802.689c0 .152.057.248.232.248.141 0 .209-.05.209-.254v-.164h-.441zM131.56 67.852v-.745h6.29v.861l-5.042 3.068h5.042v.735h-6.29v-.803l5.139-3.116zM137.85 77.916h-.677v-3.484h-2.052v3.154h-.668v-3.154h-2.206v3.484h-.687v-4.268h6.29zM136.292 80.005c.977 0 1.646.93 1.646 2.178 0 .706-.194 1.394-.426 1.79l-.765-.242a2.43 2.43 0 0 0 .513-1.52c0-.841-.281-1.383-.91-1.383-1.471 0-.871 3.358-3.135 3.358-1.2 0-1.752-1.055-1.752-2.284 0-.842.262-1.567.542-2.032l.765.27a2.8 2.8 0 0 0-.649 1.84c0 .774.3 1.374.997 1.374 1.752 0 1.064-3.349 3.174-3.349M136.292 86.294c.977 0 1.646.93 1.646 2.178 0 .706-.194 1.394-.426 1.79l-.765-.242c.31-.387.513-.919.513-1.52 0-.841-.281-1.383-.91-1.383-1.471 0-.871 3.359-3.135 3.359-1.2 0-1.752-1.056-1.752-2.284 0-.843.262-1.568.542-2.033l.765.27a2.8 2.8 0 0 0-.649 1.84c0 .774.3 1.374.997 1.374 1.752 0 1.064-3.349 3.174-3.349M134.695 97.23c-1.868 0-3.232-.9-3.232-2.662 0-1.858 1.239-2.603 3.223-2.603 1.945 0 3.252.842 3.252 2.642 0 1.839-1.133 2.623-3.243 2.623m0-.832c1.645 0 2.565-.397 2.565-1.791 0-1.384-.871-1.81-2.574-1.81-1.597 0-2.545.349-2.545 1.771 0 1.365 1.026 1.83 2.554 1.83M131.56 105.589v-.745h6.29v.861l-5.042 3.068h5.042v.735h-6.29v-.803l5.139-3.116zM132.227 111.366v1.771h4.801l-.32-1.606h.629l.591 2.371h-5.701v1.858h-.667v-4.394z"/><path fill="#778186" d="M96.78 4.57H46.065a8.39 8.39 0 0 0-8.391 8.392v118.216a8.39 8.39 0 0 0 8.391 8.392h50.717a8.39 8.39 0 0 0 8.391-8.392V12.962a8.39 8.39 0 0 0-8.391-8.392"/><path fill="#000" d="M101.814 12.96v118.22a5.04 5.04 0 0 1-5.04 5.04H46.072a5.04 5.04 0 0 1-5.04-5.04V12.96c0-.982.287-1.914.783-2.688a5 5 0 0 1 4.256-2.352h50.701a5.04 5.04 0 0 1 5.041 5.04"/><path fill="#374146" d="M92.6 22.54H50.245v70.62h42.357z"/><path fill="#dedd00" d="M85.52 106.804H57.325a3.2 3.2 0 0 0 0 6.399H85.52a3.2 3.2 0 1 0 0-6.399"/><g fill="#fff" opacity=".2"><path d="M101.804 58.502v20.2l-59.988-68.43a5 5 0 0 1 4.256-2.352h11.38zM101.814 12.96v8.166L90.234 7.92h6.54a5.04 5.04 0 0 1 5.04 5.04M101.814 84.706v9.366L41.032 24.758V15.39zM41.032 81.154l48.29 55.066h2.222L41.033 78.614zM53.96 136.22h-7.887a5.04 5.04 0 0 1-5.04-5.04v-9.704z"/></g></svg>
